contributed-vectors/memorigi.svg

<svg xmlns="http://www.w3.org/2000/svg" xml:space="preserve" style="fill-rule:evenodd;clip-rule:evenodd;stroke-linejoin:round;stroke-miterlimit:2" viewBox="0 0 192 192"><path d="M164.5 21.5c0-5.519-4.481-10-10-10h-133c-5.519 0-10 4.481-10 10v133c0 5.519 4.481 10 10 10h133c5.519 0 10-4.481 10-10v-133Z" style="fill:#fff" transform="translate(8 8)"/><path d="M84.485 67.99c0-6.161-5.168-11.163-11.533-11.163-6.365 0-11.533 5.002-11.533 11.163v56.74c0 6.161 5.168 11.164 11.533 11.164 6.365 0 11.533-5.003 11.533-11.164V67.99Z" style="fill:#f9de81" transform="rotate(45 61.376 108.327) scale(.75485 .77988)"/><path d="M84.485 67.99c0-6.161-5.168-11.163-11.533-11.163-6.365 0-11.533 5.002-11.533 11.163v56.74c0 6.161 5.168 11.164 11.533 11.164 6.365 0 11.533-5.003 11.533-11.164V67.99Z" style="fill:#ff837d" transform="rotate(45 50.39 134.995) scale(.75485 .77988)"/><path d="M84.485 67.99c0-6.161-5.168-11.163-11.533-11.163-6.365 0-11.533 5.002-11.533 11.163v56.74c0 6.161 5.168 11.164 11.533 11.164 6.365 0 11.533-5.003 11.533-11.164V67.99Z" style="fill:#9abeff" transform="rotate(45 39.354 161.641) scale(.75485 .77988)"/></svg>

<?xml version="1.0" encoding="UTF-8" standalone="no"?>
<!DOCTYPE svg PUBLIC "-//W3C//DTD SVG 1.1//EN" "http://www.w3.org/Graphics/SVG/1.1/DTD/svg11.dtd">
<svg width="100%" height="100%" viewBox="0 0 192 192" version="1.1" xmlns="http://www.w3.org/2000/svg" xmlns:xlink="http://www.w3.org/1999/xlink" xml:space="preserve" xmlns:serif="http://www.serif.com/" style="fill-rule:evenodd;clip-rule:evenodd;stroke-linejoin:round;stroke-miterlimit:2;">
    <g id="Layer1">
        <g transform="matrix(1,0,0,1,8,8)">
            <path d="M164.5,21.5C164.5,15.981 160.019,11.5 154.5,11.5L21.5,11.5C15.981,11.5 11.5,15.981 11.5,21.5L11.5,154.5C11.5,160.019 15.981,164.5 21.5,164.5L154.5,164.5C160.019,164.5 164.5,160.019 164.5,154.5L164.5,21.5Z" style="fill:white;"/>
        </g>
        <g transform="matrix(0.570708,0.570708,-0.570708,0.570708,82.1078,-15.7346)">
            <g transform="matrix(0.93526,0,0,0.966273,14.4829,-7.36341)">
                <path d="M84.485,67.99C84.485,61.829 79.317,56.827 72.952,56.827C66.587,56.827 61.419,61.829 61.419,67.99L61.419,124.73C61.419,130.891 66.587,135.894 72.952,135.894C79.317,135.894 84.485,130.891 84.485,124.73L84.485,67.99Z" style="fill:rgb(249,222,129);"/>
            </g>
            <g transform="matrix(0.93526,0,0,0.966273,41.8332,-7.41674)">
                <path d="M84.485,67.99C84.485,61.829 79.317,56.827 72.952,56.827C66.587,56.827 61.419,61.829 61.419,67.99L61.419,124.73C61.419,130.891 66.587,135.894 72.952,135.894C79.317,135.894 84.485,130.891 84.485,124.73L84.485,67.99Z" style="fill:rgb(255,131,125);"/>
            </g>
            <g transform="matrix(0.93526,0,0,0.966273,69.1835,-7.41674)">
                <path d="M84.485,67.99C84.485,61.829 79.317,56.827 72.952,56.827C66.587,56.827 61.419,61.829 61.419,67.99L61.419,124.73C61.419,130.891 66.587,135.894 72.952,135.894C79.317,135.894 84.485,130.891 84.485,124.73L84.485,67.99Z" style="fill:rgb(154,190,255);"/>
            </g>
        </g>
    </g>
</svg>
